Core Library/library/public/InterfaceImages/Use.svg

<svg style="height: 512px; width: 512px;" xmlns="http://www.w3.org/2000/svg" viewBox="0 0 512 512"><defs><filter id="shadow-1" height="300%" width="300%" x="-100%" y="-100%"><feFlood flood-color="rgba(0, 0, 0, 1)" result="flood"></feFlood><feComposite in="flood" in2="SourceGraphic" operator="out" result="composite"></feComposite><feGaussianBlur in="composite" stdDeviation="7" result="blur"></feGaussianBlur><feOffset dx="0" dy="0" result="offset"></feOffset><feComposite in2="SourceGraphic" in="offset" operator="atop"></feComposite></filter><filter id="shadow-2" height="300%" width="300%" x="-100%" y="-100%"><feFlood flood-color="rgba(248, 231, 28, 1)" result="flood"></feFlood><feComposite in="flood" in2="SourceGraphic" operator="out" result="composite"></feComposite><feGaussianBlur in="composite" stdDeviation="7" result="blur"></feGaussianBlur><feOffset dx="0" dy="0" result="offset"></feOffset><feComposite in2="SourceGraphic" in="offset" operator="atop"></feComposite></filter><filter id="shadow-3" height="300%" width="300%" x="-100%" y="-100%"><feFlood flood-color="rgba(0, 0, 0, 1)" result="flood"></feFlood><feComposite in="flood" in2="SourceGraphic" operator="out" result="composite"></feComposite><feGaussianBlur in="composite" stdDeviation="5" result="blur"></feGaussianBlur><feOffset dx="0" dy="0" result="offset"></feOffset><feComposite in2="SourceGraphic" in="offset" operator="atop"></feComposite></filter><filter id="shadow-4" height="300%" width="300%" x="-100%" y="-100%"><feFlood flood-color="rgba(0, 0, 0, 1)" result="flood"></feFlood><feComposite in="flood" in2="SourceGraphic" operator="out" result="composite"></feComposite><feGaussianBlur in="composite" stdDeviation="5" result="blur"></feGaussianBlur><feOffset dx="0" dy="0" result="offset"></feOffset><feComposite in2="SourceGraphic" in="offset" operator="atop"></feComposite></filter></defs><rect fill="#000000" fill-opacity="1" height="512" width="512" rx="50" ry="50"></rect><g class="" style="" transform="translate(0,0)"><path d="M256 16C123.45 16 16 123.453 16 256c0 132.548 107.45 240 240 240 132.548 0 240-107.452 240-240S388.548 16 256 16zm0 60c99.41 0 180 80.59 180 180s-80.59 180-180 180S76 355.41 76 256 156.59 76 256 76zm-15 45c-7.5 0-10.802 7.833-9.563 14.313l19.907 91.218c.73 9.53-7.815 8.665-12.625 4.19l-45.064-61.282c-2.706-4.937-10.62-10.596-17.594-6.782-6.973 3.815-6.41 12.334-4 17.344l40.344 62.938c10.388 16.62 12.386 32.35 12.563 52.812-.34 13.825-11.4 20.024-21.97 20.688l-43.53-3.844c-11.047.024-23.47 7.79-23.47 18.406 0 10.617 17.494 9.182 27 11.625 0 0 62.778 18.345 86.844 18.375 16.422.017 16.003 21.326 25.687 21.28 9.16-.04 41.118-11.973 46.5-14.655 5.385-2.682 29.853-15.973 30.126-22.22.323-7.4-13.844-20.096-9.344-28.217 10.413-27.692.305-43.128 7.47-71.688C355.758 223.666 376 181 376 181c0-4.82-2.55-8.258-6.47-10.813-4.212-1.82-11.514-.874-13.374 3.72l-30.594 54.75c-4.69 4.277-10.706 3.163-12.125-4.5l2-86.47c.74-2.896-3.292-10.392-10.28-11.406-6.99-1.01-10.62 3.866-10.938 6.657l-6.22 87.5c-1.63 4.043-7.696 4.632-9.406.25L256.72 130.72c.19-5.952-5.877-9.72-15.72-9.72z" fill="#ffffff" fill-opacity="1" filter="url(#shadow-1)"></path></g></svg>

<svg style="height: 512px; width: 512px;" xmlns="http://www.w3.org/2000/svg" viewBox="0 0 512 512"><defs><filter id="shadow-1" height="300%" width="300%" x="-100%" y="-100%"><feFlood flood-color="rgba(0, 0, 0, 1)" result="flood"></feFlood><feComposite in="flood" in2="SourceGraphic" operator="out" result="composite"></feComposite><feGaussianBlur in="composite" stdDeviation="7" result="blur"></feGaussianBlur><feOffset dx="0" dy="0" result="offset"></feOffset><feComposite in2="SourceGraphic" in="offset" operator="atop"></feComposite></filter><filter id="shadow-2" height="300%" width="300%" x="-100%" y="-100%"><feFlood flood-color="rgba(0, 0, 0, 1)" result="flood"></feFlood><feComposite in="flood" in2="SourceGraphic" operator="out" result="composite"></feComposite><feGaussianBlur in="composite" stdDeviation="14" result="blur"></feGaussianBlur><feOffset dx="0" dy="0" result="offset"></feOffset><feComposite in2="SourceGraphic" in="offset" operator="atop"></feComposite></filter><filter id="shadow-3" height="300%" width="300%" x="-100%" y="-100%"><feFlood flood-color="rgba(0, 0, 0, 1)" result="flood"></feFlood><feComposite in="flood" in2="SourceGraphic" operator="atop" result="composite"></feComposite><feGaussianBlur in="composite" stdDeviation="5" result="blur"></feGaussianBlur><feOffset dx="0" dy="0" result="offset"></feOffset><feComposite in2="offset" in="SourceGraphic" operator="over"></feComposite></filter><filter id="shadow-4" height="300%" width="300%" x="-100%" y="-100%"><feFlood flood-color="rgba(0, 0, 0, 1)" result="flood"></feFlood><feComposite in="flood" in2="SourceGraphic" operator="out" result="composite"></feComposite><feGaussianBlur in="composite" stdDeviation="5" result="blur"></feGaussianBlur><feOffset dx="0" dy="0" result="offset"></feOffset><feComposite in2="SourceGraphic" in="offset" operator="atop"></feComposite></filter><filter id="shadow-5" height="300%" width="300%" x="-100%" y="-100%"><feFlood flood-color="rgba(0, 0, 0, 1)" result="flood"></feFlood><feComposite in="flood" in2="SourceGraphic" operator="out" result="composite"></feComposite><feGaussianBlur in="composite" stdDeviation="7" result="blur"></feGaussianBlur><feOffset dx="0" dy="0" result="offset"></feOffset><feComposite in2="SourceGraphic" in="offset" operator="atop"></feComposite></filter><filter id="shadow-6" height="300%" width="300%" x="-100%" y="-100%"><feFlood flood-color="rgba(0, 0, 0, 1)" result="flood"></feFlood><feComposite in="flood" in2="SourceGraphic" operator="out" result="composite"></feComposite><feGaussianBlur in="composite" stdDeviation="7" result="blur"></feGaussianBlur><feOffset dx="0" dy="0" result="offset"></feOffset><feComposite in2="SourceGraphic" in="offset" operator="atop"></feComposite></filter><filter id="shadow-7" height="300%" width="300%" x="-100%" y="-100%"><feFlood flood-color="rgba(0, 0, 0, 1)" result="flood"></feFlood><feComposite in="flood" in2="SourceGraphic" operator="out" result="composite"></feComposite><feGaussianBlur in="composite" stdDeviation="7" result="blur"></feGaussianBlur><feOffset dx="0" dy="0" result="offset"></feOffset><feComposite in2="SourceGraphic" in="offset" operator="atop"></feComposite></filter><filter id="shadow-8" height="300%" width="300%" x="-100%" y="-100%"><feFlood flood-color="rgba(0, 0, 0, 1)" result="flood"></feFlood><feComposite in="flood" in2="SourceGraphic" operator="out" result="composite"></feComposite><feGaussianBlur in="composite" stdDeviation="7" result="blur"></feGaussianBlur><feOffset dx="0" dy="0" result="offset"></feOffset><feComposite in2="SourceGraphic" in="offset" operator="atop"></feComposite></filter><filter id="shadow-9" height="300%" width="300%" x="-100%" y="-100%"><feFlood flood-color="rgba(0, 0, 0, 1)" result="flood"></feFlood><feComposite in="flood" in2="SourceGraphic" operator="out" result="composite"></feComposite><feGaussianBlur in="composite" stdDeviation="7" result="blur"></feGaussianBlur><feOffset dx="0" dy="0" result="offset"></feOffset><feComposite in2="SourceGraphic" in="offset" operator="atop"></feComposite></filter><filter id="shadow-10" height="300%" width="300%" x="-100%" y="-100%"><feFlood flood-color="rgba(0, 0, 0, 1)" result="flood"></feFlood><feComposite in="flood" in2="SourceGraphic" operator="out" result="composite"></feComposite><feGaussianBlur in="composite" stdDeviation="7" result="blur"></feGaussianBlur><feOffset dx="0" dy="0" result="offset"></feOffset><feComposite in2="SourceGraphic" in="offset" operator="atop"></feComposite></filter><filter id="shadow-11" height="300%" width="300%" x="-100%" y="-100%"><feFlood flood-color="rgba(0, 0, 0, 1)" result="flood"></feFlood><feComposite in="flood" in2="SourceGraphic" operator="out" result="composite"></feComposite><feGaussianBlur in="composite" stdDeviation="7" result="blur"></feGaussianBlur><feOffset dx="0" dy="0" result="offset"></feOffset><feComposite in2="SourceGraphic" in="offset" operator="atop"></feComposite></filter><filter id="shadow-12" height="300%" width="300%" x="-100%" y="-100%"><feFlood flood-color="rgba(0, 0, 0, 1)" result="flood"></feFlood><feComposite in="flood" in2="SourceGraphic" operator="out" result="composite"></feComposite><feGaussianBlur in="composite" stdDeviation="7" result="blur"></feGaussianBlur><feOffset dx="0" dy="0" result="offset"></feOffset><feComposite in2="SourceGraphic" in="offset" operator="atop"></feComposite></filter><filter id="shadow-13" height="300%" width="300%" x="-100%" y="-100%"><feFlood flood-color="rgba(0, 0, 0, 1)" result="flood"></feFlood><feComposite in="flood" in2="SourceGraphic" operator="out" result="composite"></feComposite><feGaussianBlur in="composite" stdDeviation="7" result="blur"></feGaussianBlur><feOffset dx="0" dy="0" result="offset"></feOffset><feComposite in2="SourceGraphic" in="offset" operator="atop"></feComposite></filter><filter id="shadow-14" height="300%" width="300%" x="-100%" y="-100%"><feFlood flood-color="rgba(0, 0, 0, 1)" result="flood"></feFlood><feComposite in="flood" in2="SourceGraphic" operator="out" result="composite"></feComposite><feGaussianBlur in="composite" stdDeviation="7" result="blur"></feGaussianBlur><feOffset dx="0" dy="0" result="offset"></feOffset><feComposite in2="SourceGraphic" in="offset" operator="atop"></feComposite></filter><filter id="shadow-15" height="300%" width="300%" x="-100%" y="-100%"><feFlood flood-color="rgba(0, 0, 0, 1)" result="flood"></feFlood><feComposite in="flood" in2="SourceGraphic" operator="out" result="composite"></feComposite><feGaussianBlur in="composite" stdDeviation="7" result="blur"></feGaussianBlur><feOffset dx="0" dy="0" result="offset"></feOffset><feComposite in2="SourceGraphic" in="offset" operator="atop"></feComposite></filter><filter id="shadow-16" height="300%" width="300%" x="-100%" y="-100%"><feFlood flood-color="rgba(0, 0, 0, 1)" result="flood"></feFlood><feComposite in="flood" in2="SourceGraphic" operator="out" result="composite"></feComposite><feGaussianBlur in="composite" stdDeviation="7" result="blur"></feGaussianBlur><feOffset dx="0" dy="0" result="offset"></feOffset><feComposite in2="SourceGraphic" in="offset" operator="atop"></feComposite></filter><filter id="shadow-17" height="300%" width="300%" x="-100%" y="-100%"><feFlood flood-color="rgba(0, 0, 0, 1)" result="flood"></feFlood><feComposite in="flood" in2="SourceGraphic" operator="out" result="composite"></feComposite><feGaussianBlur in="composite" stdDeviation="7" result="blur"></feGaussianBlur><feOffset dx="0" dy="0" result="offset"></feOffset><feComposite in2="SourceGraphic" in="offset" operator="atop"></feComposite></filter><filter id="shadow-18" height="300%" width="300%" x="-100%" y="-100%"><feFlood flood-color="rgba(0, 0, 0, 1)" result="flood"></feFlood><feComposite in="flood" in2="SourceGraphic" operator="out" result="composite"></feComposite><feGaussianBlur in="composite" stdDeviation="7" result="blur"></feGaussianBlur><feOffset dx="0" dy="0" result="offset"></feOffset><feComposite in2="SourceGraphic" in="offset" operator="atop"></feComposite></filter></defs><rect fill="#000000" fill-opacity="1" height="512" width="512" rx="50" ry="50"></rect><g class="" style="" transform="translate(0,0)"><g transform="translate(512, 0) scale(-1, 1) rotate(0, 256, 256) skewX(0) skewY(0)"><path d="M256 16C123.45 16 16 123.453 16 256C16 388.548 123.45 496 256 496C388.548 496 496 388.548 496 256C496 123.452 388.548 16 256 16Z" class="selected" fill="#48baff" fill-opacity="1" filter="url(#shadow-2)"></path><path d="M256 76C355.41 76 436 156.59 436 256C436 355.41 355.41 436 256 436C156.59 436 76 355.41 76 256C76 156.59 156.59 76 256 76Z" class="" fill="#000000" fill-opacity="1" filter="url(#shadow-3)"></path><path d="M241 121C233.5 121 230.198 128.833 231.437 135.313L251.344 226.531C252.074 236.061 243.529 235.196 238.719 230.721L193.655 169.439C190.949 164.502 183.035 158.843 176.061 162.657C169.088 166.472 169.651 174.991 172.061 180.001L212.405 242.939C222.793 259.559 224.791 275.289 224.968 295.751C224.628 309.576 213.568 315.775 202.998 316.439L159.468 312.595C148.421 312.619 135.998 320.385 135.998 331.001C135.998 341.618 153.492 340.183 162.998 342.626C162.998 342.626 225.776 360.971 249.842 361.001C266.264 361.018 265.845 382.327 275.529 382.281C284.689 382.241 316.647 370.308 322.029 367.626C327.414 364.944 351.882 351.653 352.155 345.406C352.478 338.006 338.311 325.31 342.811 317.189C353.224 289.497 343.116 274.061 350.281 245.501C355.758 223.666 376 181 376 181C376 176.18 373.45 172.742 369.53 170.187C365.318 168.367 358.016 169.313 356.156 173.907L325.562 228.657C320.872 232.934 314.856 231.82 313.437 224.157L315.437 137.687C316.177 134.791 312.145 127.295 305.157 126.281C298.167 125.271 294.537 130.147 294.219 132.938L287.999 220.438C286.369 224.481 280.303 225.07 278.593 220.688L256.72 130.72C256.91 124.768 250.843 121 241 121Z" class="" fill="#ffffff" fill-opacity="1" filter="url(#shadow-4)"></path></g></g></svg>
